X:1
T:Title
%%score 1 2 3 4
L:1/8
M:3/2
K:C
V:1 treble nm="Part_1"
V:2 treble-8 nm="Part_2"
V:3 treble-8 nm="Part_3"
V:4 treble-8 nm="Part_4"
V:1
 F8 E4 | F2 G2 A6 G2 | E2 F3 EDC D2 C2- | C2 B,2 C4 z4 | E6 D2 F4 | G2 A4 B2 c4 | %6
 A2 G2 _B2 A2 G3 F | G2 F4 E2 F4 | z4 E4 E4 | F2 G2 A6 G2 | E4 G2 F2 D4 | C4 z4 G4 | A4 c2 _B2 G4 | %13
 F2 E2 C4 F4- | F2 E2 E2 D2 F4 | z4 A4 A4 | A4 B6 A2 | A2 B2 c6 A2 | B4 c2 A2 A4- | %19
 A2 ^G2 G2 ^F2 A2 c2 | B2 G4 A2 ^F2 E2 | G4 z2 E2 F2 D2 | !fermata!E4 z4 z4 | A4 A6 G2 | %24
 E4 G2 F2 D4 | C2 D2 E4 F2 E2 | D3 C D2 C4 B,2 | C8 z2 C2 | D2 C2 F4 G2 A2 | _B2 c3 B AG F2 B2 | %30
 A2 G3 F F4 E2 | F12 |] %32
V:2
 c8 C4 | c4 c8 | C2 D2 F2 A2 D2 G2- | G2 F2 G4 z4 | C8 D4 | D4 F4 G4 | F4 c4 d2 c2- | %7
 c2 d2 _B3 A c4 | z4 C8 | c4 c8 | C4 C4 G4 | C4 F4 E4 | D4 A4 e4 | c4 z4 F4 | C8 c4 | z4 F8 | %16
 A4 G8 | A4 F4 c4 | d4 c4 A4 | E8 e2 c2 | d2 B2 G4 D4 | z2 E2 C4 z2 G2 | C4 z4 z4 | c12 | C8 G4 | %25
 C8 c4 | A2 G3 A G2 G2 F2 | G4 C2 E2 F2 E2 | D4 A4 _B2 A2 | F2 G4 F4 D2- | D2 G2 E2 F2 C4 | c12 |] %32
V:3
 c4 A8 | F4 D8 | C2 D2 F4 D2 G2- | G2 F2 G4 z4 | C8 c2 d2 | e2 d4 f2 e2 c2 | e3 dfe c2 G2 D2- | %7
 DD D2 C4 c4 | z4 C8 | z2 c2 A4 D4 | C4 C4 G4 | C4 e4 z2 e2 | f2 e2 c2 d2 e4 | c4 F4 A2 c2- | %14
 c2 B2 B2 A2 c4 | z4 A8- | A4 D4 G4 | A4 c8 | d4 c4 A4 | E8 e2 c2 | d2 B2 G4 D4 | E4 C4 G4 | %22
 C4 z4 z4 | c12 | C8 G4 | C4 z2 C2 D4 | A2 G4 E2 F F2 E | G4 C2 E2 F2 E2 | D4 A4 e2 d2- | %29
 d2 e4 A4 z2 | c2 G3 E F2 C4 | c12 |] %32
V:4
 F8 c4 | A4 F8 | G2 F2 D2 F4 E2 | D4 C4 z4 | c8 F3 G | E2 F2 D4 C4 | c4 F4 _B2 A2 | F4 G4 F4 | %8
 z4 c8 | A4 F8 | c4 c4 _B4 | c6 A2 _B2 A2 | F8 E4 | F4 A8 | G8 F4 | z4 c8 | c4 d8 | c4 A8 | %18
 G4 A4 c4 | B8 A4 | G4 B2 c2 A4 | G4 c4 d2 B2 | !fermata!c4 z4 z4 | F12 | c8 B4 | c8 F4- | %26
 F2 E2 C4 D4 | C4 z2 C2 D2 C2 | F4 F4 E2 F2 | D2 C4 c2 A2 F2- | F2 _B4 A2 G4 | F12 |] %32

